; generated by Slic3r 1.0.0RC2 on 2014-04-04 at 22:30:09
; layer_height = 0.4
; perimeters = 3
; top_solid_layers = 3
; bottom_solid_layers = 3
; fill_density = 0.4
; perimeter_speed = 30
; infill_speed = 60
; travel_speed = 130
; nozzle_diameter = 0.5
; filament_diameter = 3
; extrusion_multiplier = 1
; perimeters extrusion width = 0.50mm
; infill extrusion width = 0.53mm
; solid infill extrusion width = 0.53mm
; top infill extrusion width = 0.53mm
; first layer extrusion width = 0.70mm
G21 ; set units to millimeters
M107
M104 S200 ; set temperature
G28 ; home all axes
G1 Z5 F5000 ; lift nozzle
M109 S200 ; wait for temperature to be reached
G90 ; use absolute coordinates
G92 E0
M82 ; use absolute distances for extrusion
G1 F1800.000 E-1.00000
G92 E0
G1 Z0.350 F7800.000
G1 X83.470 Y83.300 F7800.000
G1 E1.00000 F1800.000
G1 X84.480 Y82.470 E1.04253 F540.000
G1 X85.630 Y81.860 E1.08489
G1 X86.880 Y81.480 E1.12739
G1 X88.180 Y81.350 E1.16990
G1 X111.810 Y81.350 E1.93871
G1 X113.110 Y81.480 E1.98121
G1 X114.360 Y81.860 E2.02372
G1 X115.510 Y82.470 E2.06607
G1 X116.520 Y83.300 E2.10861
G1 X116.690 Y83.470 E2.11643
G1 X117.520 Y84.480 E2.15896
G1 X118.130 Y85.630 E2.20131
G1 X118.510 Y86.880 E2.24382
G1 X118.640 Y88.180 E2.28633
G1 X118.640 Y111.810 E3.05514
G1 X118.510 Y113.110 E3.09764
G1 X118.130 Y114.360 E3.14015
G1 X117.520 Y115.510 E3.18250
G1 X116.690 Y116.520 E3.22503
G1 X116.520 Y116.690 E3.23286
G1 X115.510 Y117.520 E3.27539
G1 X114.360 Y118.130 E3.31774
G1 X113.110 Y118.510 E3.36025
G1 X111.810 Y118.640 E3.40276
G1 X88.180 Y118.640 E4.17156
G1 X86.880 Y118.510 E4.21407
G1 X85.630 Y118.130 E4.25658
G1 X84.480 Y117.520 E4.29893
G1 X83.470 Y116.690 E4.34146
G1 X83.300 Y116.520 E4.34929
G1 X82.470 Y115.510 E4.39182
G1 X81.860 Y114.360 E4.43417
G1 X81.480 Y113.110 E4.47668
G1 X81.350 Y111.810 E4.51918
G1 X81.350 Y88.180 E5.28799
G1 X81.480 Y86.880 E5.33050
G1 X81.860 Y85.630 E5.37301
G1 X82.470 Y84.480 E5.41536
G1 X83.400 Y83.370 E5.46249
G1 F1800.000 E4.46249
G92 E0
G1 X89.678 Y89.678 F7800.000
G1 E1.00000 F1800.000
G1 X94.564 Y89.678 E1.15895 F540.000
G1 X96.240 Y91.355 E1.23609
G1 X103.760 Y91.355 E1.48075
G1 X105.436 Y89.678 E1.55788
G1 X110.322 Y89.678 E1.71683
G1 X110.322 Y94.564 E1.87578
G1 X108.645 Y96.240 E1.95292
G1 X108.645 Y103.760 E2.19758
G1 X110.322 Y105.436 E2.27471
G1 X110.322 Y110.322 E2.43366
G1 X105.436 Y110.322 E2.59261
G1 X103.760 Y108.645 E2.66975
G1 X96.240 Y108.645 E2.91441
G1 X94.564 Y110.322 E2.99154
G1 X89.678 Y110.322 E3.15049
G1 X89.678 Y105.436 E3.30944
G1 X91.355 Y103.760 E3.38658
G1 X91.355 Y96.240 E3.63124
G1 X89.678 Y94.564 E3.70837
G1 X89.678 Y89.777 E3.86412
G1 X89.021 Y89.021 F7800.000
G1 X94.836 Y89.021 E4.05330 F540.000
G1 X96.512 Y90.697 E4.13044
G1 X103.488 Y90.697 E4.35738
G1 X105.164 Y89.021 E4.43452
G1 X110.979 Y89.021 E4.62370
G1 X110.979 Y94.836 E4.81289
G1 X109.303 Y96.512 E4.89002
G1 X109.303 Y103.488 E5.11697
G1 X110.979 Y105.164 E5.19411
G1 X110.979 Y110.979 E5.38329
G1 X105.164 Y110.979 E5.57248
G1 X103.488 Y109.303 E5.64961
G1 X96.512 Y109.303 E5.87656
G1 X94.836 Y110.979 E5.95369
G1 X89.021 Y110.979 E6.14288
G1 X89.021 Y105.164 E6.33206
G1 X90.697 Y103.488 E6.40920
G1 X90.697 Y96.512 E6.63615
G1 X89.021 Y94.836 E6.71328
G1 X89.021 Y89.120 E6.89926
G1 X88.364 Y88.364 F7800.000
G1 X95.108 Y88.364 E7.11868 F378.000
G1 X96.784 Y90.040 E7.19581
G1 X103.216 Y90.040 E7.40505
G1 X104.892 Y88.364 E7.48218
G1 X111.636 Y88.364 E7.70160
G1 X111.636 Y95.108 E7.92102
G1 X109.960 Y96.784 E7.99815
G1 X109.960 Y103.216 E8.20739
G1 X111.636 Y104.892 E8.28453
G1 X111.636 Y111.636 E8.50395
G1 X104.892 Y111.636 E8.72336
G1 X103.216 Y109.960 E8.80050
G1 X96.784 Y109.960 E9.00974
G1 X95.108 Y111.636 E9.08687
G1 X88.364 Y111.636 E9.30629
G1 X88.364 Y104.892 E9.52571
G1 X90.040 Y103.216 E9.60284
G1 X90.040 Y96.784 E9.81208
G1 X88.364 Y95.108 E9.88921
G1 X88.364 Y88.463 E10.10543
G1 X88.933 Y88.693 F7800.000
G1 X90.121 Y93.872 F7800.000
G1 X106.128 Y109.879 E10.84859 F1080.000
G1 X107.066 Y109.879 E10.87937
G1 X90.121 Y92.934 E11.66607
G1 X90.121 Y91.997 E11.69685
G1 X108.003 Y109.879 E12.52708
G1 X108.941 Y109.879 E12.55786
G1 X90.121 Y91.059 E13.43163
G1 X90.155 Y90.155 E13.46134
G1 X109.845 Y109.845 E14.37556
G1 X109.879 Y108.941 E14.40528
G1 X91.059 Y90.121 E15.27904
G1 X91.997 Y90.121 E15.30982
G1 X109.879 Y108.003 E16.14005
G1 X109.879 Y107.066 E16.17084
G1 X92.934 Y90.121 E16.95753
G1 X93.872 Y90.121 E16.98831
G1 X109.879 Y106.128 E17.73147
G1 X108.202 Y103.514 F7800.000
G1 X96.486 Y91.798 E18.27543 F1080.000
G1 X97.424 Y91.798 E18.30622
G1 X108.202 Y102.576 E18.80664
G1 X108.202 Y101.639 E18.83743
G1 X98.361 Y91.798 E19.29432
G1 X99.299 Y91.798 E19.32510
G1 X108.202 Y100.701 E19.73846
G1 X108.202 Y99.763 E19.76924
G1 X100.237 Y91.798 E20.13907
G1 X101.174 Y91.798 E20.16985
G1 X108.202 Y98.826 E20.49614
G1 X108.202 Y97.888 E20.52692
G1 X102.112 Y91.798 E20.80968
G1 X103.050 Y91.798 E20.84046
G1 X108.202 Y96.950 E21.07968
G1 X108.224 Y96.035 E21.10975
G1 X103.965 Y91.776 E21.30748
G1 X104.434 Y91.307 E21.32924
G1 X108.693 Y95.566 E21.52697
G1 X109.162 Y95.097 E21.54874
G1 X104.903 Y90.838 E21.74646
G1 X105.372 Y90.369 E21.76823
G1 X109.631 Y94.628 E21.96595
G1 X109.879 Y93.938 E21.99002
G1 X106.062 Y90.121 E22.16723
G1 X106.999 Y90.121 E22.19801
G1 X109.879 Y93.001 E22.33169
G1 X109.879 Y92.063 E22.36248
G1 X107.937 Y90.121 E22.45262
G1 X108.875 Y90.121 E22.48341
G1 X109.879 Y91.125 E22.53002
G1 X109.879 Y90.188 E22.56080
G1 X109.812 Y90.121 E22.56388
G1 X91.798 Y96.486 F7800.000
G1 X103.514 Y108.202 E23.10784 F1080.000
G1 X102.576 Y108.202 E23.13862
G1 X91.798 Y97.424 E23.63905
G1 X91.798 Y98.361 E23.66983
G1 X101.639 Y108.202 E24.12673
G1 X100.701 Y108.202 E24.15751
G1 X91.798 Y99.299 E24.57087
G1 X91.798 Y100.237 E24.60165
G1 X99.763 Y108.202 E24.97148
G1 X98.826 Y108.202 E25.00226
G1 X91.798 Y101.174 E25.32855
G1 X91.798 Y102.112 E25.35934
G1 X97.888 Y108.202 E25.64209
G1 X96.950 Y108.202 E25.67287
G1 X91.798 Y103.050 E25.91210
G1 X91.776 Y103.965 E25.94217
G1 X96.035 Y108.224 E26.13989
G1 X95.566 Y108.693 E26.16166
G1 X91.307 Y104.434 E26.35939
G1 X90.838 Y104.903 E26.38115
G1 X95.097 Y109.162 E26.57888
G1 X94.628 Y109.631 E26.60065
G1 X90.369 Y105.372 E26.79837
G1 X90.121 Y106.062 E26.82244
G1 X93.938 Y109.879 E26.99965
G1 X93.001 Y109.879 E27.03043
G1 X90.121 Y106.999 E27.16412
G1 X90.121 Y107.937 E27.19490
G1 X92.063 Y109.879 E27.28505
G1 X91.125 Y109.879 E27.31583
G1 X90.121 Y108.875 E27.36244
G1 X90.121 Y109.812 E27.39323
G1 X90.188 Y109.879 E27.39630
M106 S255
G1 F1800.000 E26.39630
G92 E0
G1 Z0.750 F7800.000
G1 X88.889 Y111.111 F7800.000
G1 E1.00000 F1800.000
G1 X88.889 Y105.640 E1.15480 F1320.864
G1 X90.565 Y103.963 E1.22188
G1 X90.565 Y96.037 E1.44616
G1 X88.889 Y94.360 E1.51324
G1 X88.889 Y88.889 E1.66805
G1 X94.360 Y88.889 E1.82285
G1 X96.037 Y90.565 E1.88993
G1 X103.963 Y90.565 E2.11421
G1 X105.640 Y88.889 E2.18129
G1 X111.111 Y88.889 E2.33610
G1 X111.111 Y94.360 E2.49090
G1 X109.435 Y96.037 E2.55798
G1 X109.435 Y103.963 E2.78226
G1 X111.111 Y105.640 E2.84934
G1 X111.111 Y111.111 E3.00415
G1 X105.640 Y111.111 E3.15895
G1 X103.963 Y109.435 E3.22603
G1 X96.037 Y109.435 E3.45031
G1 X94.360 Y111.111 E3.51739
G1 X88.964 Y111.111 E3.67007
G1 X88.389 Y111.611 F7800.000
G1 X88.389 Y105.433 E3.84488 F1320.864
G1 X90.065 Y103.756 E3.91196
G1 X90.065 Y96.244 E4.12452
G1 X88.389 Y94.567 E4.19160
G1 X88.389 Y88.389 E4.36641
G1 X94.567 Y88.389 E4.54123
G1 X96.244 Y90.065 E4.60830
G1 X103.756 Y90.065 E4.82087
G1 X105.433 Y88.389 E4.88795
G1 X111.611 Y88.389 E5.06276
G1 X111.611 Y94.567 E5.23757
G1 X109.935 Y96.244 E5.30465
G1 X109.935 Y103.756 E5.51721
G1 X111.611 Y105.433 E5.58429
G1 X111.611 Y111.611 E5.75910
G1 X105.433 Y111.611 E5.93391
G1 X103.756 Y109.935 E6.00099
G1 X96.244 Y109.935 E6.21355
G1 X94.567 Y111.611 E6.28063
G1 X88.464 Y111.611 E6.45332
G1 X88.293 Y112.111 F7800.000
M106 S255
G1 X87.889 Y111.707 E6.46917 F3600
G1 X87.889 Y105.226 E6.64923
G1 X88.014 Y105.101 E6.65414
M106 S255
G1 X89.565 Y103.549 E6.71621 F924.605
G1 X89.565 Y103.196 E6.72622
M106 S255
G1 X89.565 Y96.804 E6.90375 F3600
M106 S255
G1 X89.565 Y96.451 E6.91375 F924.605
G1 X88.014 Y94.899 E6.97583
M106 S255
G1 X87.889 Y94.774 E6.98074 F3600
G1 X87.889 Y88.293 E7.16079
G1 X88.293 Y87.889 E7.17665
G1 X94.774 Y87.889 E7.35670
G1 X94.899 Y88.014 E7.36161
M106 S255
G1 X96.451 Y89.565 E7.42369 F924.605
G1 X96.804 Y89.565 E7.43369
M106 S255
G1 X103.196 Y89.565 E7.61123 F3600
M106 S255
G1 X103.549 Y89.565 E7.62123 F924.605
G1 X105.101 Y88.014 E7.68331
M106 S255
G1 X105.226 Y87.889 E7.68822 F3600
G1 X111.707 Y87.889 E7.86827
G1 X112.111 Y88.293 E7.88412
G1 X112.111 Y94.774 E8.06418
G1 X111.986 Y94.899 E8.06909
M106 S255
G1 X110.435 Y96.451 E8.13116 F924.605
G1 X110.435 Y96.804 E8.14117
M106 S255
G1 X110.435 Y103.196 E8.31870 F3600
M106 S255
G1 X110.435 Y103.549 E8.32870 F924.605
G1 X111.986 Y105.101 E8.39078
M106 S255
G1 X112.111 Y105.226 E8.39569 F3600
G1 X112.111 Y111.707 E8.57575
G1 X111.707 Y112.111 E8.59160
G1 X105.226 Y112.111 E8.77165
G1 X105.101 Y111.986 E8.77656
M106 S255
G1 X103.549 Y110.435 E8.83864 F924.605
G1 X103.196 Y110.435 E8.84864
M106 S255
G1 X96.804 Y110.435 E9.02618 F3600
M106 S255
G1 X96.451 Y110.435 E9.03618 F924.605
G1 X94.899 Y111.986 E9.09826
M106 S255
G1 X94.774 Y112.111 E9.10317 F3600
G1 X88.368 Y112.111 E9.28114
M106 S255
G1 X88.293 Y111.611 F7800.000
G1 X93.676 Y110.770 F7800.000
G1 X110.770 Y93.676 E9.99793 F2641.729
G1 X110.770 Y92.935 E10.01990
G1 X92.935 Y110.770 E10.76776
G1 X92.194 Y110.770 E10.78973
G1 X110.770 Y92.194 E11.56867
G1 X110.770 Y91.453 E11.59064
G1 X91.453 Y110.770 E12.40064
G1 X90.712 Y110.770 E12.42261
G1 X110.770 Y90.712 E13.26368
G1 X110.770 Y89.971 E13.28565
G1 X89.971 Y110.770 E14.15779
G1 X89.256 Y110.744 E14.17900
G1 X110.744 Y89.256 E15.08001
G1 X110.029 Y89.230 E15.10122
G1 X89.230 Y110.029 E15.97336
G1 X89.230 Y109.288 E15.99533
G1 X109.288 Y89.230 E16.83639
G1 X108.547 Y89.230 E16.85836
G1 X89.230 Y108.547 E17.66836
G1 X89.230 Y107.806 E17.69033
G1 X107.806 Y89.230 E18.46926
G1 X107.065 Y89.230 E18.49123
G1 X89.230 Y107.065 E19.23909
G1 X89.230 Y106.324 E19.26106
G1 X106.324 Y89.230 E19.97785
G1 X103.907 Y90.906 F7800.000
G1 X90.906 Y103.907 E20.52299 F2641.729
G1 X90.906 Y103.166 E20.54496
G1 X103.166 Y90.906 E21.05903
G1 X102.425 Y90.906 E21.08100
G1 X90.906 Y102.425 E21.56399
G1 X90.906 Y101.684 E21.58596
G1 X101.684 Y90.906 E22.03789
G1 X100.943 Y90.906 E22.05986
G1 X90.906 Y100.943 E22.48072
G1 X90.906 Y100.202 E22.50269
G1 X100.202 Y90.906 E22.89248
G1 X99.461 Y90.906 E22.91445
G1 X90.906 Y99.461 E23.27317
G1 X90.906 Y98.720 E23.29514
G1 X98.720 Y90.906 E23.62279
G1 X97.979 Y90.906 E23.64476
G1 X90.906 Y97.979 E23.94134
G1 X90.906 Y97.238 E23.96331
G1 X97.238 Y90.906 E24.22882
G1 X96.497 Y90.906 E24.25079
G1 X90.906 Y96.497 E24.48523
G1 X90.837 Y95.826 E24.50524
G1 X95.826 Y90.837 E24.71445
G1 X95.455 Y90.466 E24.72999
G1 X90.466 Y95.455 E24.93920
G1 X90.096 Y95.085 E24.95473
G1 X95.085 Y90.096 E25.16394
G1 X94.714 Y89.725 E25.17947
G1 X89.725 Y94.714 E25.38868
G1 X89.355 Y94.344 E25.40422
G1 X94.344 Y89.355 E25.61343
G1 X93.728 Y89.230 E25.63207
G1 X89.230 Y93.728 E25.82068
G1 X89.230 Y92.987 E25.84264
G1 X92.987 Y89.230 E26.00019
G1 X92.246 Y89.230 E26.02216
G1 X89.230 Y92.246 E26.14863
G1 X89.230 Y91.505 E26.17060
G1 X91.505 Y89.230 E26.26600
G1 X90.764 Y89.230 E26.28797
G1 X89.230 Y90.764 E26.35230
G1 X89.230 Y90.023 E26.37427
G1 X90.023 Y89.230 E26.40753
G1 X89.282 Y89.230 E26.42950
G1 X89.230 Y89.282 E26.43170
G1 X96.093 Y109.094 F7800.000
G1 X109.094 Y96.093 E26.97684 F2641.729
G1 X109.094 Y96.834 E26.99880
G1 X96.834 Y109.094 E27.51288
G1 X97.575 Y109.094 E27.53484
G1 X109.094 Y97.575 E28.01785
G1 X109.094 Y98.316 E28.03982
G1 X98.316 Y109.094 E28.49175
G1 X99.057 Y109.094 E28.51372
G1 X109.094 Y99.057 E28.93458
G1 X109.094 Y99.798 E28.95655
G1 X99.798 Y109.094 E29.34634
G1 X100.539 Y109.094 E29.36831
G1 X109.094 Y100.539 E29.72703
G1 X109.094 Y101.280 E29.74900
G1 X101.280 Y109.094 E30.07666
G1 X102.021 Y109.094 E30.09863
G1 X109.094 Y102.021 E30.39521
G1 X109.094 Y102.762 E30.41718
G1 X102.762 Y109.094 E30.68270
G1 X103.503 Y109.094 E30.70466
G1 X109.094 Y103.503 E30.93911
G1 X109.163 Y104.174 E30.95912
G1 X104.174 Y109.163 E31.16833
G1 X104.545 Y109.534 E31.18387
G1 X109.534 Y104.545 E31.39308
G1 X109.904 Y104.915 E31.40861
G1 X104.915 Y109.904 E31.61782
G1 X105.285 Y110.275 E31.63335
G1 X110.275 Y105.285 E31.84256
G1 X110.645 Y105.656 E31.85810
G1 X105.656 Y110.645 E32.06731
G1 X106.272 Y110.770 E32.08595
G1 X110.770 Y106.272 E32.27456
G1 X110.770 Y107.013 E32.29653
G1 X107.013 Y110.770 E32.45407
G1 X107.754 Y110.770 E32.47604
G1 X110.770 Y107.754 E32.60252
G1 X110.770 Y108.495 E32.62449
G1 X108.495 Y110.770 E32.71989
G1 X109.236 Y110.770 E32.74186
G1 X110.770 Y109.236 E32.80620
G1 X110.770 Y109.977 E32.82817
G1 X109.977 Y110.770 E32.86143
G1 X110.718 Y110.770 E32.88340
G1 X110.770 Y110.718 E32.88560
G1 F1800.000 E31.88560
G92 E0
G1 Z1.150 F7800.000
G1 X111.450 Y111.293 F7800.000
G1 E1.00000 F1800.000
G1 X111.293 Y111.450 E1.00627 F1414.382
G1 X105.979 Y111.450 E1.15664
G1 X104.175 Y109.647 E1.22880
G1 X95.825 Y109.647 E1.46508
G1 X94.021 Y111.450 E1.53724
G1 X88.707 Y111.450 E1.68761
G1 X88.550 Y111.293 E1.69388
G1 X88.550 Y105.979 E1.84425
G1 X90.353 Y104.175 E1.91641
G1 X90.353 Y95.825 E2.15269
G1 X88.550 Y94.021 E2.22485
G1 X88.550 Y88.707 E2.37522
G1 X88.707 Y88.550 E2.38149
G1 X94.021 Y88.550 E2.53186
G1 X95.825 Y90.353 E2.60402
G1 X104.175 Y90.353 E2.84030
G1 X105.979 Y88.550 E2.91246
G1 X111.293 Y88.550 E3.06283
G1 X111.450 Y88.707 E3.06910
G1 X111.450 Y94.021 E3.21947
G1 X109.647 Y95.825 E3.29163
G1 X109.647 Y104.175 E3.52791
G1 X111.450 Y105.979 E3.60007
G1 X111.450 Y111.218 E3.74832
G1 X111.950 Y111.500 F7800.000
G1 X111.500 Y111.950 E3.76631 F1414.382
G1 X105.772 Y111.950 E3.92840
G1 X103.968 Y110.147 E4.00056
G1 X96.032 Y110.147 E4.22512
G1 X94.228 Y111.950 E4.29728
G1 X88.500 Y111.950 E4.45937
G1 X88.050 Y111.500 E4.47736
G1 X88.050 Y105.772 E4.63945
G1 X89.853 Y103.968 E4.71161
G1 X89.853 Y96.032 E4.93617
G1 X88.050 Y94.228 E5.00833
G1 X88.050 Y88.500 E5.17042
G1 X88.500 Y88.050 E5.18841
G1 X94.228 Y88.050 E5.35050
G1 X96.032 Y89.853 E5.42266
G1 X103.968 Y89.853 E5.64722
G1 X105.772 Y88.050 E5.71938
G1 X111.500 Y88.050 E5.88147
G1 X111.950 Y88.500 E5.89946
G1 X111.950 Y94.228 E6.06155
G1 X110.147 Y96.032 E6.13371
G1 X110.147 Y103.968 E6.35827
G1 X111.950 Y105.772 E6.43043
G1 X111.950 Y111.425 E6.59040
G1 X112.450 Y111.707 F7800.000
M106 S255
G1 X112.361 Y111.796 E6.59389 F3600
M106 S255
G1 X111.796 Y112.361 E6.61648 F990.067
M106 S255
G1 X111.707 Y112.450 E6.61998 F3600
G1 X105.565 Y112.450 E6.79062
G1 X105.476 Y112.361 E6.79411
M106 S255
G1 X103.761 Y110.647 E6.86271 F990.067
G1 X96.239 Y110.647 E7.07555
G1 X94.524 Y112.361 E7.14415
M106 S255
G1 X94.435 Y112.450 E7.14765 F3600
G1 X88.293 Y112.450 E7.31828
G1 X88.204 Y112.361 E7.32178
M106 S255
G1 X87.639 Y111.796 E7.34437 F990.067
M106 S255
G1 X87.550 Y111.707 E7.34786 F3600
G1 X87.550 Y105.565 E7.51850
G1 X87.639 Y105.476 E7.52200
M106 S255
G1 X89.353 Y103.761 E7.59060 F990.067
G1 X89.353 Y96.239 E7.80343
G1 X87.639 Y94.524 E7.87203
M106 S255
G1 X87.550 Y94.435 E7.87553 F3600
G1 X87.550 Y88.293 E8.04617
G1 X87.639 Y88.204 E8.04966
M106 S255
G1 X88.204 Y87.639 E8.07225 F990.067
M106 S255
G1 X88.293 Y87.550 E8.07575 F3600
G1 X94.435 Y87.550 E8.24639
G1 X94.524 Y87.639 E8.24988
M106 S255
