; generated by Slic3r 1.0.0RC2 on 2014-03-31 at 21:41:25

; layer_height = 0.4
; perimeters = 3
; top_solid_layers = 3
; bottom_solid_layers = 3
; fill_density = 0.4
; perimeter_speed = 30
; infill_speed = 60
; travel_speed = 130
; nozzle_diameter = 0.5
; filament_diameter = 3
; extrusion_multiplier = 1
; perimeters extrusion width = 0.50mm
; infill extrusion width = 0.53mm
; solid infill extrusion width = 0.53mm
; top infill extrusion width = 0.53mm
; first layer extrusion width = 0.70mm

G21 ; set units to millimeters
M107
M104 S200 ; set temperature
G28 ; home all axes
G1 Z5 F5000 ; lift nozzle

M109 S200 ; wait for temperature to be reached
G90 ; use absolute coordinates
G92 E0
M82 ; use absolute distances for extrusion
G1 F1800.000 E-1.00000
G92 E0
G1 Z0.350 F7800.000
G1 X84.195 Y83.652 F7800.000
G1 E1.00000 F1800.000
G1 X84.745 Y83.112 E1.02508 F540.000
G1 X85.605 Y82.402 E1.06136
G1 X86.575 Y81.842 E1.09780
G1 X86.745 Y81.762 E1.10391
G1 X87.555 Y81.442 E1.13225
G1 X88.415 Y81.232 E1.16105
G1 X89.995 Y80.952 E1.21326
G1 X90.915 Y80.852 E1.24337
G1 X91.195 Y80.842 E1.25248
G1 X92.215 Y80.882 E1.28570
G1 X93.065 Y80.982 E1.31354
G1 X111.055 Y83.362 E1.90395
G1 X112.125 Y83.592 E1.93956
G1 X113.005 Y83.902 E1.96991
G1 X114.825 Y84.672 E2.03421
G1 X115.745 Y85.142 E2.06782
G1 X116.915 Y85.982 E2.11468
G1 X117.865 Y87.062 E2.16148
G1 X118.335 Y87.722 E2.18784
G1 X118.735 Y88.342 E2.21185
G1 X119.174 Y89.132 E2.24127
G1 X119.525 Y89.872 E2.26790
G1 X119.785 Y90.652 E2.29465
G1 X120.325 Y92.672 E2.36268
G1 X120.455 Y93.252 E2.38202
G1 X120.525 Y93.832 E2.40102
G1 X120.665 Y95.502 E2.45555
G1 X120.674 Y96.592 E2.49101
G1 X120.455 Y99.032 E2.57072
G1 X120.365 Y99.642 E2.59078
G1 X119.445 Y104.532 E2.75267
G1 X119.285 Y105.202 E2.77508
G1 X118.885 Y106.542 E2.82058
G1 X118.485 Y107.692 E2.86020
G1 X118.075 Y108.722 E2.89626
G1 X117.685 Y109.522 E2.92522
G1 X117.275 Y110.202 E2.95105
G1 X116.405 Y111.462 E3.00087
G1 X116.055 Y111.922 E3.01968
G1 X114.685 Y113.582 E3.08970
G1 X114.315 Y114.002 E3.10792
G1 X113.855 Y114.472 E3.12931
G1 X112.615 Y115.672 E3.18545
G1 X112.055 Y116.162 E3.20966
G1 X110.815 Y117.122 E3.26068
G1 X110.505 Y117.342 E3.27305
G1 X104.795 Y121.272 E3.49858
G1 X103.875 Y121.812 E3.53329
G1 X102.525 Y122.432 E3.58162
G1 X101.995 Y122.642 E3.60017
G1 X101.065 Y122.932 E3.63186
G1 X99.954 Y123.192 E3.66895
G1 X99.195 Y123.322 E3.69404
G1 X98.435 Y123.372 E3.71882
G1 X97.965 Y123.372 E3.73411
G1 X96.885 Y123.282 E3.76937
G1 X95.544 Y123.062 E3.81355
G1 X94.895 Y122.922 E3.83518
G1 X94.075 Y122.702 E3.86281
G1 X93.415 Y122.482 E3.88544
G1 X92.425 Y122.102 E3.91994
G1 X91.345 Y121.632 E3.95826
G1 X90.585 Y121.172 E3.98717
G1 X89.805 Y120.572 E4.01918
G1 X88.915 Y119.782 E4.05790
G1 X88.395 Y119.262 E4.08183
G1 X87.544 Y118.322 E4.12306
G1 X86.885 Y117.472 E4.15807
G1 X85.165 Y114.802 E4.26141
G1 X83.975 Y112.872 E4.33518
G1 X83.565 Y112.122 E4.36299
G1 X82.725 Y110.412 E4.42497
G1 X82.495 Y109.912 E4.44288
G1 X82.165 Y109.082 E4.47194
G1 X81.654 Y107.492 E4.52627
G1 X81.085 Y105.382 E4.59738
G1 X80.575 Y102.912 E4.67943
G1 X80.475 Y102.302 E4.69954
G1 X80.415 Y101.762 E4.71722
G1 X80.255 Y100.242 E4.76695
G1 X80.225 Y99.712 E4.78422
G1 X80.205 Y99.172 E4.80180
G1 X80.205 Y97.102 E4.86915
G1 X80.235 Y96.372 E4.89292
G1 X80.465 Y93.312 E4.99276
G1 X80.555 Y92.502 E5.01927
G1 X80.654 Y91.922 E5.03842
G1 X81.075 Y89.982 E5.10300
G1 X81.335 Y89.022 E5.13536
G1 X81.865 Y87.422 E5.19020
G1 X82.245 Y86.502 E5.22258
G1 X82.505 Y85.962 E5.24208
G1 X82.815 Y85.452 E5.26150
G1 X83.325 Y84.692 E5.29128
G1 X83.735 Y84.152 E5.31334
G1 X84.128 Y83.725 E5.33224
G1 F1800.000 E4.33224
G92 E0
G1 X90.217 Y89.371 F7800.000
G1 E1.00000 F1800.000
G1 X91.375 Y89.164 E1.03828 F540.000
G1 X91.819 Y89.221 E1.05285
G1 X93.113 Y89.670 E1.09742
G1 X93.433 Y89.872 E1.10973
G1 X94.256 Y90.493 E1.14327
G1 X94.228 Y90.727 E1.15095
G1 X95.113 Y91.568 E1.19068
G1 X95.325 Y91.935 E1.20445
G1 X96.080 Y92.458 E1.23433
G1 X96.871 Y92.847 E1.26301
G1 X97.014 Y92.873 E1.26774
G1 X97.381 Y92.989 E1.28026
G1 X98.406 Y93.066 E1.31372
G1 X98.716 Y93.120 E1.32394
G1 X99.323 Y93.302 E1.34456
G1 X100.039 Y93.211 E1.36805
G1 X100.196 Y93.246 E1.37327
G1 X101.526 Y93.403 E1.41687
G1 X102.776 Y93.692 E1.45859
G1 X103.089 Y93.684 E1.46878
G1 X103.263 Y93.733 E1.47467
G1 X104.128 Y93.811 E1.50293
G1 X104.806 Y93.760 E1.52504
G1 X105.007 Y93.654 E1.53242
G1 X105.356 Y93.603 E1.54389
G1 X106.105 Y93.220 E1.57127
G1 X106.620 Y92.818 E1.59255
G1 X107.227 Y92.060 E1.62411
G1 X107.601 Y91.786 E1.63921
G1 X108.512 Y91.638 E1.66923
G1 X108.828 Y91.619 E1.67954
G1 X109.655 Y91.679 E1.70651
G1 X109.950 Y91.658 E1.71613
G1 X111.314 Y92.226 E1.76420
G1 X111.524 Y92.501 E1.77547
G1 X111.781 Y92.962 E1.79266
G1 X111.932 Y93.664 E1.81601
G1 X112.243 Y94.696 E1.85106
G1 X112.256 Y95.221 E1.86814
G1 X112.372 Y96.141 E1.89834
G1 X112.219 Y97.237 E1.93433
G1 X112.178 Y98.215 E1.96619
G1 X111.525 Y101.606 E2.07852
G1 X111.346 Y102.636 E2.11255
G1 X111.259 Y103.020 E2.12535
G1 X110.962 Y104.030 E2.15960
G1 X110.905 Y104.144 E2.16376
G1 X110.736 Y104.672 E2.18179
G1 X110.386 Y105.552 E2.21259
G1 X109.556 Y106.729 E2.25947
G1 X108.207 Y108.320 E2.32733
G1 X108.183 Y108.369 E2.32910
G1 X106.870 Y109.666 E2.38915
G1 X105.798 Y110.498 E2.43332
G1 X105.348 Y110.661 E2.44887
G1 X103.994 Y111.492 E2.50056
G1 X102.515 Y112.357 E2.55631
G1 X101.629 Y113.208 E2.59630
G1 X100.912 Y113.672 E2.62406
G1 X100.171 Y114.358 E2.65692
G1 X99.591 Y114.609 E2.67747
G1 X99.347 Y114.750 E2.68666
G1 X99.053 Y114.869 E2.69697
G1 X98.281 Y115.045 E2.72273
G1 X98.117 Y115.039 E2.72807
G1 X97.318 Y114.892 E2.75451
G1 X96.936 Y114.852 E2.76698
G1 X96.459 Y114.724 E2.78306
G1 X96.255 Y114.604 E2.79075
G1 X95.235 Y114.268 E2.82569
G1 X94.516 Y113.631 E2.85696
G1 X93.806 Y112.838 E2.89159
G1 X92.571 Y110.890 E2.96663
G1 X92.148 Y110.269 E2.99108
G1 X91.242 Y108.818 E3.04673
G1 X90.736 Y107.835 E3.08271
G1 X90.383 Y107.030 E3.11129
G1 X90.152 Y106.656 E3.12560
G1 X90.040 Y105.736 E3.15576
G1 X89.663 Y105.122 E3.17919
G1 X89.579 Y104.921 E3.18630
G1 X89.229 Y103.664 E3.22875
G1 X89.066 Y102.794 E3.25752
G1 X89.070 Y102.703 E3.26051
G1 X88.744 Y101.289 E3.30770
G1 X88.702 Y100.935 E3.31932
G1 X88.704 Y100.633 E3.32915
G1 X88.539 Y99.411 E3.36925
G1 X88.532 Y99.181 E3.37674
G1 X88.568 Y98.174 E3.40952
G1 X88.651 Y97.678 E3.42588
G1 X88.540 Y96.985 E3.44873
G1 X88.770 Y93.953 E3.54764
G1 X88.812 Y93.619 E3.55860
G1 X89.071 Y92.350 E3.60074
G1 X89.197 Y91.808 E3.61884
G1 X89.332 Y91.339 E3.63473
G1 X89.805 Y89.982 E3.68147
G1 X90.162 Y89.453 E3.70223
G1 X89.702 Y88.986 F7800.000
G1 X89.947 Y88.749 E3.71331 F540.000
G1 X91.202 Y88.516 E3.75483
G1 X91.398 Y88.504 E3.76125
G1 X91.970 Y88.578 E3.78000
G1 X93.380 Y89.067 E3.82857
G1 X93.811 Y89.334 E3.84506
G1 X94.953 Y90.195 E3.89159
G1 X94.920 Y90.478 E3.90085
G1 X95.637 Y91.161 E3.93307
G1 X95.821 Y91.479 E3.94504
G1 X96.413 Y91.889 E3.96847
G1 X97.078 Y92.217 E3.99261
G1 X97.506 Y92.339 E4.00709
G1 X98.485 Y92.413 E4.03903
G1 X98.868 Y92.479 E4.05165
G1 X99.378 Y92.633 E4.06901
G1 X100.108 Y92.552 E4.09288
G1 X100.296 Y92.595 E4.09916
G1 X101.641 Y92.755 E4.14324
G1 X102.843 Y93.033 E4.18335
G1 X103.172 Y93.025 E4.19408
G1 X103.383 Y93.084 E4.20121
G1 X104.132 Y93.151 E4.22568
G1 X104.621 Y93.114 E4.24163
G1 X104.800 Y93.020 E4.24821
G1 X105.153 Y92.968 E4.25982
G1 X105.750 Y92.664 E4.28163
G1 X106.157 Y92.345 E4.29844
G1 X106.791 Y91.542 E4.33175
G1 X106.913 Y91.475 E4.33628
G1 X107.340 Y91.163 E4.35349
G1 X108.440 Y90.984 E4.38973
G1 X108.833 Y90.961 E4.40255
G1 X109.655 Y91.020 E4.42934
G1 X110.074 Y90.990 E4.44301
G1 X111.726 Y91.684 E4.50133
G1 X112.075 Y92.140 E4.52001
G1 X112.403 Y92.729 E4.54195
G1 X112.568 Y93.499 E4.56758
G1 X112.897 Y94.580 E4.60433
G1 X112.912 Y95.171 E4.62358
G1 X113.031 Y96.115 E4.65453
G1 X112.875 Y97.293 E4.69318
G1 X112.832 Y98.295 E4.72581
G1 X111.911 Y103.132 E4.88603
G1 X111.576 Y104.272 E4.92468
G1 X111.515 Y104.394 E4.92910
G1 X111.355 Y104.893 E4.94618
G1 X110.947 Y105.897 E4.98141
G1 X110.097 Y107.107 E5.02952
G1 X108.762 Y108.682 E5.09670
G1 X108.727 Y108.754 E5.09932
G1 X107.309 Y110.157 E5.16420
G1 X106.183 Y111.031 E5.21060
G1 X106.054 Y111.104 E5.21540
G1 X105.634 Y111.256 E5.22993
G1 X104.327 Y112.059 E5.27985
G1 X102.914 Y112.885 E5.33310
G1 X102.020 Y113.738 E5.37329
G1 X101.313 Y114.195 E5.40067
G1 X100.535 Y114.916 E5.43518
G1 X99.887 Y115.197 E5.45817
G1 X99.636 Y115.342 E5.46762
G1 X99.250 Y115.498 E5.48115
G1 X98.343 Y115.705 E5.51143
G1 X98.025 Y115.693 E5.52180
G1 X97.227 Y115.543 E5.54820
G1 X96.816 Y115.500 E5.56163
G1 X96.203 Y115.336 E5.58228
G1 X95.987 Y115.208 E5.59046
G1 X95.161 Y114.947 E5.61864
G1 X94.930 Y114.853 E5.62676
G1 X94.835 Y114.791 E5.63043
G1 X94.051 Y114.097 E5.66450
G1 X93.287 Y113.243 E5.70179
G1 X92.018 Y111.245 E5.77879
G1 X91.603 Y110.637 E5.80275
G1 X90.675 Y109.150 E5.85976
G1 X90.441 Y108.724 E5.87560
G1 X90.140 Y108.112 E5.89778
G1 X89.799 Y107.336 E5.92535
G1 X89.592 Y106.999 E5.93824
G1 X89.502 Y106.810 E5.94503
G1 X89.492 Y106.603 E5.95178
G1 X89.408 Y105.965 E5.97273
G1 X89.041 Y105.358 E5.99578
G1 X88.957 Y105.136 E6.00350
G1 X88.588 Y103.812 E6.04822
G1 X88.406 Y102.842 E6.08033
G1 X88.409 Y102.776 E6.08250
G1 X88.095 Y101.400 E6.12841
G1 X88.045 Y100.971 E6.14246
G1 X88.047 Y100.681 E6.15191
G1 X87.883 Y99.461 E6.19194
G1 X87.874 Y99.180 E6.20108
G1 X87.913 Y98.108 E6.23600
G1 X87.985 Y97.676 E6.25024
G1 X87.883 Y97.036 E6.27133
G1 X88.125 Y93.786 E6.37735
G1 X88.164 Y93.509 E6.38645
G1 X88.429 Y92.210 E6.42960
G1 X88.560 Y91.644 E6.44850
G1 X88.707 Y91.136 E6.46569
G1 X89.128 Y89.902 E6.50813
G1 X89.222 Y89.671 E6.51623
G1 X89.635 Y89.058 E6.54028
G1 X89.130 Y88.633 F7800.000
G1 X89.639 Y88.133 E6.56350 F378.000
G1 X91.114 Y87.863 E6.61229
G1 X91.422 Y87.845 E6.62232
G1 X92.122 Y87.935 E6.64527
G1 X93.662 Y88.470 E6.69832
G1 X94.189 Y88.797 E6.71851
G1 X95.651 Y89.898 E6.77804
G1 X95.611 Y90.229 E6.78889
G1 X96.162 Y90.757 E6.81372
G1 X96.316 Y91.024 E6.82375
G1 X96.746 Y91.321 E6.84073
G1 X97.286 Y91.587 E6.86032
G1 X97.632 Y91.690 E6.87206
G1 X98.564 Y91.760 E6.90249
G1 X99.019 Y91.838 E6.91750
G1 X99.434 Y91.963 E6.93160
G1 X99.937 Y91.899 E6.94809
G1 X100.174 Y91.894 E6.95583
G1 X100.397 Y91.944 E6.96324
G1 X101.756 Y92.108 E7.00779
G1 X102.910 Y92.374 E7.04630
G1 X103.255 Y92.365 E7.05755
G1 X103.503 Y92.435 E7.06594
G1 X104.136 Y92.492 E7.08661
G1 X104.436 Y92.469 E7.09640
G1 X104.595 Y92.386 E7.10224
G1 X104.951 Y92.334 E7.11394
G1 X105.395 Y92.107 E7.13017
G1 X105.695 Y91.873 E7.14253
G1 X106.102 Y91.372 E7.16355
G1 X106.347 Y91.035 E7.17710
G1 X106.561 Y90.919 E7.18505
G1 X107.069 Y90.548 E7.20549
G1 X108.368 Y90.330 E7.24834
G1 X108.838 Y90.302 E7.26368
G1 X109.654 Y90.361 E7.29029
G1 X110.154 Y90.325 E7.30661
G1 X110.292 Y90.366 E7.31128
G1 X112.085 Y91.120 E7.37456
G1 X112.208 Y91.196 E7.37928
G1 X112.325 Y91.385 E7.38652
G1 X112.626 Y91.778 E7.40262
G1 X113.025 Y92.495 E7.42932
G1 X113.205 Y93.334 E7.45724
G1 X113.549 Y94.462 E7.49560
G1 X113.568 Y95.122 E7.51709
G1 X113.689 Y96.085 E7.54865
G1 X113.684 Y96.247 E7.55393
G1 X113.531 Y97.349 E7.59013
G1 X113.486 Y98.374 E7.62352
G1 X112.563 Y103.245 E7.78482
G1 X112.189 Y104.515 E7.82788
G1 X112.125 Y104.643 E7.83256
G1 X111.974 Y105.115 E7.84867
G1 X111.577 Y106.115 E7.88367
G1 X111.506 Y106.242 E7.88842
G1 X110.638 Y107.485 E7.93772
G1 X109.317 Y109.044 E8.00422
G1 X109.268 Y109.144 E8.00785
G1 X107.749 Y110.648 E8.07740
G1 X106.548 Y111.579 E8.12683
G1 X106.331 Y111.703 E8.13497
G1 X105.921 Y111.851 E8.14915
G1 X104.659 Y112.626 E8.19732
G1 X103.313 Y113.413 E8.24805
G1 X102.471 Y114.221 E8.28602
G1 X101.715 Y114.718 E8.31546
G1 X100.980 Y115.399 E8.34807
G1 X100.848 Y115.496 E8.35341
G1 X100.184 Y115.784 E8.37697
G1 X99.925 Y115.934 E8.38668
G1 X99.448 Y116.127 E8.40343
G1 X98.404 Y116.365 E8.43825
G1 X97.996 Y116.363 E8.45153
G1 X97.742 Y116.300 E8.46004
G1 X97.136 Y116.194 E8.48007
G1 X96.696 Y116.148 E8.49445
G1 X95.947 Y115.947 E8.51968
G1 X95.718 Y115.813 E8.52833
G1 X94.937 Y115.566 E8.55497
G1 X94.622 Y115.438 E8.56603
G1 X94.437 Y115.316 E8.57325
G1 X93.586 Y114.563 E8.61020
G1 X92.768 Y113.649 E8.65010
G1 X92.709 Y113.563 E8.65351
G1 X91.465 Y111.600 E8.72912
G1 X91.058 Y111.005 E8.75258
G1 X90.108 Y109.483 E8.81095
G1 X89.858 Y109.027 E8.82788
G1 X89.544 Y108.389 E8.85100
G1 X89.216 Y107.642 E8.87755
G1 X89.014 Y107.313 E8.89011
G1 X88.852 Y106.974 E8.90235
G1 X88.837 Y106.662 E8.91250
G1 X88.775 Y106.194 E8.92786
G1 X88.426 Y105.607 E8.95008
G1 X88.335 Y105.352 E8.95888
G1 X87.947 Y103.961 E9.00585
G1 X87.749 Y102.849 E9.04263
G1 X87.446 Y101.511 E9.08726
G1 X87.388 Y101.007 E9.10375
G1 X87.389 Y100.729 E9.11281
G1 X87.228 Y99.511 E9.15278
G1 X87.217 Y99.180 E9.16356
G1 X87.258 Y98.042 E9.20061
G1 X87.319 Y97.674 E9.21275
G1 X87.225 Y97.081 E9.23228
G1 X87.476 Y93.672 E9.34348
G1 X87.516 Y93.400 E9.35245
G1 X87.787 Y92.070 E9.39661
G1 X87.924 Y91.480 E9.41630
G1 X88.082 Y90.934 E9.43479
G1 X88.511 Y89.675 E9.47808
G1 X88.639 Y89.361 E9.48912
G1 X89.075 Y88.715 E9.51446
G1 X89.773 Y88.766 F7800.000
G1 X89.954 Y104.616 F7800.000
G1 X99.502 Y114.165 E9.96103 F1080.000
G1 X100.101 Y113.819 E9.98390
G1 X89.618 Y103.336 E10.47417
G1 X89.403 Y102.176 E10.51317
G1 X100.591 Y113.365 E11.03645
G1 X101.157 Y112.986 E11.05896
G1 X89.154 Y100.983 E11.62034
G1 X89.058 Y99.942 E11.65490
G1 X101.670 Y112.554 E12.24475
G1 X102.152 Y112.091 E12.26685
G1 X88.984 Y98.924 E12.88267
G1 X89.040 Y98.036 E12.91211
G1 X102.725 Y111.721 E13.55214
G1 X103.322 Y111.372 E13.57498
G1 X88.999 Y97.050 E14.24482
G1 X89.048 Y96.154 E14.27450
G1 X103.915 Y111.021 E14.96983
G1 X104.500 Y110.662 E14.99254
G1 X89.114 Y95.276 E15.71212
G1 X89.181 Y94.398 E15.74124
G1 X105.085 Y110.302 E16.48506
G1 X105.723 Y109.996 E16.50847
G1 X89.279 Y93.552 E17.27751
G1 X89.445 Y92.773 E17.30385
G1 X106.255 Y109.583 E18.09003
G1 X106.747 Y109.131 E18.11214
G1 X89.610 Y91.994 E18.91361
G1 X89.827 Y91.266 E18.93873
G1 X107.219 Y108.658 E19.75215
G1 X107.692 Y108.186 E19.77424
G1 X90.071 Y90.565 E20.59834
G1 X90.377 Y89.927 E20.62176
G1 X108.151 Y107.701 E21.45305
G1 X108.585 Y107.190 E21.47521
G1 X91.058 Y89.663 E22.29493
G1 X92.148 Y89.808 E22.33130
G1 X109.018 Y106.679 E23.12031
G1 X109.427 Y106.144 E23.14260
G1 X96.386 Y93.102 E23.75252
G1 X97.684 Y93.456 E23.79700
G1 X109.818 Y105.589 E24.36448
G1 X110.141 Y104.968 E24.38764
G1 X98.772 Y93.599 E24.91936
G1 X99.805 Y93.687 E24.95364
G1 X110.396 Y104.279 E25.44899
G1 X110.635 Y103.573 E25.47364
G1 X100.829 Y93.767 E25.93226
G1 X101.966 Y93.959 E25.97040
G1 X110.846 Y102.839 E26.38570
G1 X110.999 Y102.047 E26.41237
G1 X103.098 Y94.147 E26.78187
G1 X104.149 Y94.253 E26.81679
G1 X111.143 Y101.247 E27.14389
G1 X111.295 Y100.455 E27.17056
G1 X104.999 Y94.159 E27.46504
G1 X105.706 Y93.921 E27.48971
G1 X111.448 Y99.663 E27.75825
G1 X111.601 Y98.871 E27.78493
G1 X106.331 Y93.602 E28.03135
G1 X106.864 Y93.190 E28.05362
G1 X111.741 Y98.067 E28.28173
G1 X111.782 Y97.164 E28.31163
G1 X107.298 Y92.680 E28.52135
G1 X107.773 Y92.210 E28.54344
G1 X111.898 Y96.335 E28.73636
G1 X111.821 Y95.314 E28.77022
G1 X108.585 Y92.078 E28.92158
G1 X109.568 Y92.117 E28.95413
G1 X111.621 Y94.169 E29.05015
G1 X111.168 Y92.771 E29.09876
G1 X110.951 Y92.554 E29.10890
G1 X90.536 Y106.143 F7800.000
G1 X98.853 Y114.460 E29.49789 F1080.000
G1 X98.019 Y114.570 E29.52574
G1 X91.182 Y107.734 E29.84548
G1 X92.499 Y109.995 F7800.000
G1 X96.883 Y114.379 E30.05047 F1080.000
